src/topics/icons/selenium.svg

<svg height="249" preserveAspectRatio="xMidYMid" viewBox="0 0 256 249" width="256" xmlns="http://www.w3.org/2000/svg" xmlns:xlink="http://www.w3.org/1999/xlink"><radialGradient id="a" cx="3.684695%" cy="93.523026%" r="105.029056%"><stop offset="0" stop-color="#212121"/><stop offset="1" stop-color="#b8b8b8"/></radialGradient><linearGradient id="b" x1="50.877945%" x2="50.877945%" y1="134.661915%" y2="-.000001%"><stop offset="0" stop-color="#4b4b4b"/><stop offset="1" stop-color="#fff"/></linearGradient><linearGradient id="c" x1="31.39467%" x2="56.461995%" y1="83.962295%" y2="29.27916%"><stop offset="0" stop-color="#26761e"/><stop offset="1" stop-color="#2cb134" stop-opacity=".996078"/></linearGradient><radialGradient id="d" cx="30.637579%" cy="48.59125%" gradientTransform="matrix(.806967 0 0 1 .059141 0)" r="51.841565%"><stop offset="0" stop-color="#fff"/><stop offset="1" stop-color="#fff" stop-opacity="0"/></radialGradient><path d="m45.5013451 18.7741272h142.0121869c23.295892 0 42.180943 18.8850512 42.180943 42.1809425v142.0121873c0 23.295891-18.885051 42.180942-42.180943 42.180942h-142.0121869c-23.2958913 0-42.18094254-18.885051-42.18094254-42.180942v-142.0121873c0-23.2958913 18.88505124-42.1809425 42.18094254-42.1809425z" fill="url(#a)"/><path d="m45.5013451 21.9243852c-21.5560518 0-39.03068452 17.4746327-39.03068452 39.0306845v142.0121873c0 21.556052 17.47463272 39.030684 39.03068452 39.030684h142.0121869c21.556052 0 39.030685-17.474632 39.030685-39.030684v-142.0121873c0-21.5560518-17.474633-39.0306845-39.030685-39.0306845zm0-6.3005161h142.0121869c25.035731 0 45.331201 20.2954699 45.331201 45.3312006v142.0121873c0 25.035731-20.29547 45.3312-45.331201 45.3312h-142.0121869c-25.0357307 0-45.33120057-20.295469-45.33120057-45.3312v-142.0121873c0-25.0357307 20.29546987-45.3312006 45.33120057-45.3312006z" fill="#2b2b2b"/><path d="m46.5611562 27.0960173h139.0630528c19.997863 0 36.209335 16.2114716 36.209335 36.2093352v84.2722565c0 19.997863-16.211472 36.209335-36.209335 36.209335h-139.0630528c-19.9978637 0-36.2093353-16.211472-36.2093353-36.209335v-84.2722565c0-19.9978636 16.2114716-36.2093352 36.2093353-36.2093352z" fill="url(#b)" opacity=".81"/><path d="m99.5180603 140.180955-20.7830649 6.953159c-2.8016973-8.252017-8.7360743-12.378063-17.8031416-12.37815-9.6784222.000087-14.5176116 3.132824-14.5175826 9.398223-.000029 2.496084.9041326 4.610043 2.7124956 6.341895 1.8082978 1.73199 5.8961362 3.234685 12.263537 4.508091 10.6461709 2.139498 18.4398139 4.304396 23.3809507 6.494706 4.9409991 2.190433 9.1052465 5.717946 12.4927602 10.582555 3.3873543 4.864709 5.0810713 10.302428 5.0811543 16.313178-.000083 9.423718-3.629475 17.573933-10.8881866 24.450668-7.2588601 6.876751-18.019688 10.315124-32.2825198 10.315124-10.6971971 0-19.8025161-2.432329-27.3159785-7.296996-7.513495-4.864652-12.4672977-12.085231-14.8614228-21.66176l22.6168686-5.119359c2.5469176 9.72935 9.6274177 14.594009 21.2415149 14.593991 5.6032281.000018 9.7802139-1.082431 12.5309683-3.247354 2.7506385-2.16488 4.1259886-4.750024 4.1260501-7.755446-.0000615-3.0563-1.2480634-5.424959-3.744009-7.105974-2.4960616-1.680946-7.3097813-3.260049-14.4411737-4.737318-13.2950794-2.750656-22.7697045-6.507396-28.4239009-11.270228-5.6542252-4.762729-8.4813306-11.728616-8.481327-20.897678-.0000036-9.270795 3.3746955-17.089908 10.1241048-23.45736 6.7493802-6.367259 15.9056384-9.550936 27.4687963-9.551041 20.4773712.000105 33.6450589 8.175789 39.5031066 24.527074zm81.8833777 46.609084h-49.665416c-.050968 1.375382-.076438 2.572445-.076409 3.591191-.000029 5.501425 1.464465 9.652941 4.393482 12.454559 2.928948 2.801654 6.430991 4.202474 10.506146 4.202459 7.589842.000015 12.148865-4.049623 13.677091-12.148927l20.630247 1.528168c-5.756165 17.828618-17.446628 26.742915-35.071424 26.742915-7.691808 0-14.224714-1.540899-19.598737-4.622705-5.37407-3.081794-9.805749-7.577147-13.295051-13.486069-3.48932-5.908889-5.233976-12.989385-5.233969-21.241518-.000007-12.276221 3.502041-22.183823 10.506146-29.722839 7.004073-7.538881 16.007514-11.308356 27.010347-11.308432 9.933028.000076 18.452548 3.502123 25.558583 10.506142 7.105901 7.00416 10.658884 18.172499 10.658964 33.505056zm-49.741825-13.218642h27.430592c-.7132-10.595232-5.06847-15.892871-13.065823-15.892932-8.557769.000061-13.346019 5.2977-14.364769 15.892932z" fill="#eee"/><path d="m60.0149702 117.464348c-11.1259588.000101-19.8356055 3.028489-26.2264249 9.057488-6.3869284 6.025484-9.5560294 13.368231-9.556026 22.140447-.0000034 8.66415 2.6191411 15.117627 7.8372477 19.513 5.3804561 4.532246 14.5973823 8.186806 27.6247552 10.882076 7.347288 1.521991 12.3402862 3.159907 15.0852891 5.008499 2.9978492 2.019046 4.543045 4.951765 4.5431187 8.607659-.0000735 3.586855-1.6477742 6.68392-4.8168154 9.178103-3.1175278 2.453585-7.6769673 3.635146-13.650667 3.635127-11.7237399.000018-19.3596724-4.80727-22.4956248-14.264322l-19.1201499 4.327872c2.4314433 8.250921 6.9571467 14.490626 13.6027793 18.793376 7.205376 4.665192 15.9690756 7.006264 26.3320104 7.006264 13.8352673 0 24.1526885-3.296691 31.0373751-9.818964 6.9036868-6.540394 10.3227863-14.218372 10.3228653-23.136336-.000079-5.642198-1.5812688-10.718649-4.7564175-15.278602-3.2027013-4.599211-7.1101752-7.909212-11.7407222-9.962016-4.7946352-2.125369-12.4765731-4.259239-23.0023015-6.374533-6.6882933-1.337581-11.0275673-2.932703-13.1607287-4.975849-2.1646397-2.073055-3.2707634-4.659206-3.2707287-7.649441-.0000345-7.471914 5.7720886-11.208604 16.3280667-11.208699 9.1976499.000088 15.5934538 4.034051 18.8811924 11.918838l17.3400657-5.801274c-5.8738418-14.432636-18.1313767-21.598616-37.138159-21.598713zm17.5851381 31.958555-.5794659-1.706737c-2.5489648-7.507628-7.7871896-11.149656-16.0887724-11.149735-8.8009004.000079-12.7071554 2.528864-12.7071321 7.587777-.0000232 2.001904.7021776 3.643671 2.154338 5.034391 1.4833591 1.420764 5.3197628 2.83103 11.3679348 4.040596 10.7649644 2.16337 18.670304 4.359296 23.7579866 6.614567 5.2513992 2.328039 9.6724201 6.073064 13.2447794 11.203118 3.5995283 5.169421 5.4057713 10.968408 5.4058593 17.347748-.000088 9.929431-3.839772 18.551882-11.453521 25.764972-7.6330248 7.231218-18.8372623 10.811271-33.5276524 10.811271-11.0314608 0-20.4783986-2.523588-28.2999415-7.587724-7.9095585-5.121085-13.1313485-12.732278-15.6338708-22.742398l-.4490391-1.796162 26.1303572-5.914642.4434117 1.693855c2.3272378 8.890163 8.6613696 13.24203 19.4900706 13.242013 5.2327521.000017 9.027282-.983321 11.4112456-2.859569 2.3322544-1.835593 3.4352505-3.908816 3.4353001-6.332728-.0000494-2.456781-.9508593-4.261379-2.9448386-5.604321-2.2471792-1.513338-6.8816171-3.033631-13.7966817-4.466087-13.5632194-2.806133-23.2955457-6.665052-29.2234658-11.658455-6.0903607-5.130101-9.1254283-12.608396-9.1254245-22.28237-.0000038-9.769376 3.5802927-18.064855 10.6922006-24.77429 7.1079227-6.705503 16.7107915-10.04447 28.7111766-10.044579 21.2038257.000109 35.0763654 8.613427 41.207485 25.726923l.623678 1.740845zm91.8714617 5.151496c-6.767719-6.670561-14.830893-9.985019-24.287667-9.985091-10.508801.000072-19.029178 3.567302-25.683976 10.730239-6.676505 7.186395-10.022069 16.651297-10.022062 28.490566-.000007 7.94241 1.66645 14.705549 4.982451 20.320936 3.33391 5.645776 7.54236 9.914691 12.636753 12.836104 5.082827 2.914815 11.306532 4.382784 18.698086 4.382784 16.088425 0 26.857315-7.676275 32.59463-23.300487l-16.722541-1.238708c-1.992921 7.899307-7.13801 12.037988-15.107997 12.037973-4.5407.000016-8.491212-1.58019-11.757576-4.704596-3.32076-3.176322-4.952556-7.802104-4.952524-13.762838-.00003-1.043004.025905-2.261925.07765-3.658288l.064607-1.743421h49.582383c-.267832-13.950919-3.665064-24.060187-10.102217-30.405173zm-36.00149 35.80684c-.000026 5.042054 1.297164 8.719305 3.834463 11.146243 2.59151 2.478881 5.645086 3.700312 9.254701 3.700299 6.692332.000013 10.526584-3.405832 11.898014-10.674146l.299881-1.589311 24.539933 1.817775-.707597 2.191646c-5.992703 18.561246-18.367185 27.997126-36.79432 27.997126-7.992065 0-14.834172-1.61383-20.49938-4.86262-5.653753-3.242181-10.308662-7.96397-13.953352-14.136032-3.662646-6.202404-5.485499-13.60026-5.485491-22.162106-.000008-12.713171 3.65852-23.063475 10.990237-30.955122 7.353342-7.914819 16.839846-11.886537 28.336736-11.886617 10.40925.00008 19.385119 3.689712 26.829499 11.027218 7.499404 7.39203 11.198419 19.019398 11.198501 34.794437l.000009 1.810476h-49.719689c-.014787.646747-.02216 1.240402-.022145 1.780734zm-3.803363-14.999375.190741-1.983747c1.101592-11.456814 6.590864-17.53005 16.166938-17.530119 9.068137.00007 14.100765 6.121629 14.872188 17.581806l.130054 1.93206zm27.439145-3.620934c-.997929-8.392055-4.63099-12.271949-11.081467-12.271999-7.007245.000051-11.032444 3.90617-12.317197 12.271999z" fill="#232323"/><path d="m107.916027 89.7196983 42.589486 45.4287827 103.244981-106.897953-14.196493-24.98583061-86.209188 90.43001461-29.528709-27.8251252z" fill="url(#c)"/><path d="m109.578481 86.1958963 42.021625 30.5017157 98.632372-95.4245359-9.879435-18.07853393-86.777048 92.13359473-28.960849-26.689405z" fill="url(#d)"/><path d="m239.924611.25212812 16.069196 28.28178968-105.507815 109.2408502-44.872942-47.8644696 17.885224-26.8278312 29.778147 28.0601721zm-89.399578 132.27006588 100.982147-104.5550557-12.323789-21.68987163-85.770185 89.96951813-29.279272-27.5900783-13.91493 20.8723916z"/></svg>

<?xml version="1.0" encoding="UTF-8"?>
<svg width="256px" height="249px" viewBox="0 0 256 249" version="1.1" xmlns="http://www.w3.org/2000/svg" xmlns:xlink="http://www.w3.org/1999/xlink" preserveAspectRatio="xMidYMid">
    <defs>
        <radialGradient cx="3.68469517%" cy="93.5230255%" fx="3.68469517%" fy="93.5230255%" r="105.029056%" id="radialGradient-1">
            <stop stop-color="#212121" offset="0%"></stop>
            <stop stop-color="#B8B8B8" offset="100%"></stop>
        </radialGradient>
        <linearGradient x1="50.8779452%" y1="134.661915%" x2="50.8779452%" y2="-1.02273036e-06%" id="linearGradient-2">
            <stop stop-color="#4B4B4B" offset="0%"></stop>
            <stop stop-color="#FFFFFF" offset="100%"></stop>
        </linearGradient>
        <linearGradient x1="31.39467%" y1="83.9622945%" x2="56.4619952%" y2="29.2791595%" id="linearGradient-3">
            <stop stop-color="#26761E" offset="0%"></stop>
            <stop stop-color="#2CB134" stop-opacity="0.99607843" offset="100%"></stop>
        </linearGradient>
        <radialGradient cx="30.6375789%" cy="48.5912499%" fx="30.6375789%" fy="48.5912499%" r="51.841565%" gradientTransform="translate(0.306376,0.485912),scale(0.806967,1.000000),translate(-0.306376,-0.485912)" id="radialGradient-4">
            <stop stop-color="#FFFFFF" offset="0%"></stop>
            <stop stop-color="#FFFFFF" stop-opacity="0" offset="100%"></stop>
        </radialGradient>
    </defs>
		<g>
				<path d="M45.5013451,18.7741272 L187.513532,18.7741272 C210.809424,18.7741272 229.694475,37.6591784 229.694475,60.9550697 L229.694475,202.967257 C229.694475,226.263148 210.809424,245.148199 187.513532,245.148199 L45.5013451,245.148199 C22.2054538,245.148199 3.32040256,226.263148 3.32040256,202.967257 L3.32040256,60.9550697 C3.32040256,37.6591784 22.2054538,18.7741272 45.5013451,18.7741272 Z" fill="url(#radialGradient-1)" fill-rule="nonzero"></path>
				<path d="M45.5013451,21.9243852 C23.9452933,21.9243852 6.47066058,39.3990179 6.47066058,60.9550697 L6.47066058,202.967257 C6.47066058,224.523309 23.9452933,241.997941 45.5013451,241.997941 L187.513532,241.997941 C209.069584,241.997941 226.544217,224.523309 226.544217,202.967257 L226.544217,60.9550697 C226.544217,39.3990179 209.069584,21.9243852 187.513532,21.9243852 L45.5013451,21.9243852 Z M45.5013451,15.6238691 L187.513532,15.6238691 C212.549263,15.6238691 232.844733,35.919339 232.844733,60.9550697 L232.844733,202.967257 C232.844733,228.002988 212.549263,248.298457 187.513532,248.298457 L45.5013451,248.298457 C20.4656144,248.298457 0.170144534,228.002988 0.170144534,202.967257 L0.170144534,60.9550697 C0.170144534,35.919339 20.4656144,15.6238691 45.5013451,15.6238691 Z" fill="#2B2B2B" fill-rule="nonzero"></path>
				<path d="M46.5611562,27.0960173 L185.624209,27.0960173 C205.622072,27.0960173 221.833544,43.3074889 221.833544,63.3053525 L221.833544,147.577609 C221.833544,167.575472 205.622072,183.786944 185.624209,183.786944 L46.5611562,183.786944 C26.5632925,183.786944 10.3518209,167.575472 10.3518209,147.577609 L10.3518209,63.3053525 C10.3518209,43.3074889 26.5632925,27.0960173 46.5611562,27.0960173 Z" fill="url(#linearGradient-2)" fill-rule="nonzero" opacity="0.81000001"></path>
				<path d="M99.5180603,140.180955 L78.7349954,147.134114 C75.9332981,138.882097 69.9989211,134.756051 60.9318538,134.755964 C51.2534316,134.756051 46.4142422,137.888788 46.4142712,144.154187 C46.4142422,146.650271 47.3184038,148.76423 49.1267668,150.496082 C50.9350646,152.228072 55.022903,153.730767 61.3903038,155.004173 C72.0364747,157.143671 79.8301177,159.308569 84.7712545,161.498879 C89.7122536,163.689312 93.876501,167.216825 97.2640147,172.081434 C100.651369,176.946143 102.345086,182.383862 102.345169,188.394612 C102.345086,197.81833 98.715694,205.968545 91.4569824,212.84528 C84.1981223,219.722031 73.4372944,223.160404 59.1744626,223.160404 C48.4772655,223.160404 39.3719465,220.728075 31.8584841,215.863408 C24.3449891,210.998756 19.3911864,203.778177 16.9970613,194.201648 L39.6139299,189.082289 C42.1608475,198.811639 49.2413476,203.676298 60.8554448,203.67628 C66.4586729,203.676298 70.6356587,202.593849 73.3864131,200.428926 C76.1370516,198.264046 77.5124017,195.678902 77.5124632,192.67348 C77.5124017,189.61718 76.2643998,187.248521 73.7684542,185.567506 C71.2723926,183.88656 66.4586729,182.307457 59.3272805,180.830188 C46.0322011,178.079532 36.557576,174.322792 30.9033796,169.55996 C25.2491544,164.797231 22.422049,157.831344 22.4220526,148.662282 C22.422049,139.391487 25.7967481,131.572374 32.5461574,125.204922 C39.2955376,118.837663 48.4517958,115.653986 60.0149537,115.653881 C80.4923249,115.653986 93.6600126,123.82967 99.5180603,140.180955 L99.5180603,140.180955 Z M181.401438,186.790039 L131.736022,186.790039 C131.685054,188.165421 131.659584,189.362484 131.659613,190.38123 C131.659584,195.882655 133.124078,200.034171 136.053095,202.835789 C138.982043,205.637443 142.484086,207.038263 146.559241,207.038248 C154.149083,207.038263 158.708106,202.988625 160.236332,194.889321 L180.866579,196.417489 C175.110414,214.246107 163.419951,223.160404 145.795155,223.160404 C138.103347,223.160404 131.570441,221.619505 126.196418,218.537699 C120.822348,215.455905 116.390669,210.960552 112.901367,205.05163 C109.412047,199.142741 107.667391,192.062245 107.667398,183.810112 C107.667391,171.533891 111.169439,161.626289 118.173544,154.087273 C125.177617,146.548392 134.181058,142.778917 145.183891,142.778841 C155.116919,142.778917 163.636439,146.280964 170.742474,153.284983 C177.848375,160.289143 181.401358,171.457482 181.401438,186.790039 L181.401438,186.790039 Z M131.659613,173.571397 L159.090205,173.571397 C158.377005,162.976165 154.021735,157.678526 146.024382,157.678465 C137.466613,157.678526 132.678363,162.976165 131.659613,173.571397 L131.659613,173.571397 Z" fill="#EEEEEE" fill-rule="nonzero"></path>
				<path d="M60.0149702,117.464348 C48.8890114,117.464449 40.1793647,120.492837 33.7885453,126.521836 C27.4016169,132.54732 24.2325159,139.890067 24.2325193,148.662283 C24.2325159,157.326433 26.8516604,163.77991 32.069767,168.175283 C37.4502231,172.707529 46.6671493,176.362089 59.6945222,179.057359 C67.0418102,180.57935 72.0348084,182.217266 74.7798113,184.065858 C77.7776605,186.084904 79.3228563,189.017623 79.32293,192.673517 C79.3228565,196.260372 77.6751558,199.357437 74.5061146,201.85162 C71.3885868,204.305205 66.8291473,205.486766 60.8554476,205.486747 C49.1317077,205.486765 41.4957752,200.679477 38.3598228,191.222425 L19.2396729,195.550297 C21.6711162,203.801218 26.1968196,210.040923 32.8424522,214.343673 C40.0478282,219.008865 48.8115278,221.349937 59.1744626,221.349937 C73.0097299,221.349937 83.3271511,218.053246 90.2118377,211.530973 C97.1155245,204.990579 100.534624,197.312601 100.534703,188.394637 C100.534624,182.752439 98.9534342,177.675988 95.7782855,173.116035 C92.5755842,168.516824 88.6681103,165.206823 84.0375633,163.154019 C79.2429281,161.02865 71.5609902,158.89478 61.0352618,156.779486 C54.3469685,155.441905 50.0076945,153.846783 47.8745331,151.803637 C45.7098934,149.730582 44.6037697,147.144431 44.6038044,144.154196 C44.6037699,136.682282 50.375893,132.945592 60.9318711,132.945497 C70.129521,132.945585 76.5253249,136.979548 79.8130635,144.864335 L97.1531292,139.063061 C91.2792874,124.630425 79.0217525,117.464445 60.0149702,117.464348 Z M77.6001083,149.422903 L77.0206424,147.716166 C74.4716776,140.208538 69.2334528,136.56651 60.93187,136.566431 C52.1309696,136.56651 48.2247146,139.095295 48.2247379,144.154208 C48.2247147,146.156112 48.9269155,147.797879 50.3790759,149.188599 C51.862435,150.609363 55.6988387,152.019629 61.7470107,153.229195 C72.5119751,155.392565 80.4173147,157.588491 85.5049973,159.843762 C90.7563965,162.171801 95.1774174,165.916826 98.7497767,171.04688 C102.349305,176.216301 104.155548,182.015288 104.155636,188.394628 C104.155548,198.324059 100.315864,206.94651 92.702115,214.1596 C85.0690902,221.390818 73.8648527,224.970871 59.1744626,224.970871 C48.1430018,224.970871 38.696064,222.447283 30.8745211,217.383147 C22.9649626,212.262062 17.7431726,204.650869 15.2406503,194.640749 L14.7916112,192.844587 L40.9219684,186.929945 L41.3653801,188.6238 C43.6926179,197.513963 50.0267497,201.86583 60.8554507,201.865813 C66.0882028,201.86583 69.8827327,200.882492 72.2666963,199.006244 C74.5989507,197.170651 75.7019468,195.097428 75.7019964,192.673516 C75.701947,190.216735 74.7511371,188.412137 72.7571578,187.069195 C70.5099786,185.555857 65.8755407,184.035564 58.9604761,182.603108 C45.3972567,179.796975 35.6649304,175.938056 29.7370103,170.944653 C23.6466496,165.814552 20.611582,158.336257 20.6115858,148.662283 C20.611582,138.892907 24.1918785,130.597428 31.3037864,123.887993 C38.4117091,117.18249 48.0145779,113.843523 60.014963,113.843414 C81.2187887,113.843523 95.0913284,122.456841 101.222448,139.570337 L101.846126,141.311182 L77.6001083,149.422903 Z M169.47157,154.574399 C162.703851,147.903838 154.640677,144.58938 145.183903,144.589308 C134.675102,144.58938 126.154725,148.15661 119.499927,155.319547 C112.823422,162.505942 109.477858,171.970844 109.477865,183.810113 C109.477858,191.752523 111.144315,198.515662 114.460316,204.131049 C117.794226,209.776825 122.002676,214.04574 127.097069,216.967153 C132.179896,219.881968 138.403601,221.349937 145.795155,221.349937 C161.88358,221.349937 172.65247,213.673662 178.389785,198.04945 L161.667244,196.810742 C159.674323,204.710049 154.529234,208.84873 146.559247,208.848715 C142.018547,208.848731 138.068035,207.268525 134.801671,204.144119 C131.480911,200.967797 129.849115,196.342015 129.849147,190.381281 C129.849117,189.338277 129.875052,188.119356 129.926797,186.722993 L129.991404,184.979572 L179.573787,184.979572 C179.305955,171.028653 175.908723,160.919385 169.47157,154.574399 Z M133.47008,190.381239 C133.470054,195.423293 134.767244,199.100544 137.304543,201.527482 C139.896053,204.006363 142.949629,205.227794 146.559244,205.227781 C153.251576,205.227794 157.085828,201.821949 158.457258,194.553635 L158.757139,192.964324 L183.297072,194.782099 L182.589475,196.973745 C176.596772,215.534991 164.22229,224.970871 145.795155,224.970871 C137.80309,224.970871 130.960983,223.357041 125.295775,220.108251 C119.642022,216.86607 114.987113,212.144281 111.342423,205.972219 C107.679777,199.769815 105.856924,192.371959 105.856932,183.810113 C105.856924,171.096942 109.515452,160.746638 116.847169,152.854991 C124.200511,144.940172 133.687015,140.968454 145.183905,140.968374 C155.593155,140.968454 164.569024,144.658086 172.013404,151.995592 C179.512808,159.387622 183.211823,171.01499 183.211905,186.790029 L183.211914,188.600505 L133.492225,188.600505 C133.477438,189.247252 133.470065,189.840907 133.47008,190.381239 Z M129.666717,175.381864 L129.857458,173.398117 C130.95905,161.941303 136.448322,155.868067 146.024396,155.867998 C155.092533,155.868068 160.125161,161.989627 160.896584,173.449804 L161.026638,175.381864 L129.666717,175.381864 Z M157.105862,171.76093 C156.107933,163.368875 152.474872,159.488981 146.024395,159.488931 C139.01715,159.488982 134.991951,163.395101 133.707198,171.76093 L157.105862,171.76093 Z" fill="#232323" fill-rule="nonzero"></path>
				<polygon fill="url(#linearGradient-3)" points="107.916027 89.7196983 150.505513 135.148481 253.750494 28.250528 239.554001 3.26469739 153.344813 93.694712 123.816104 65.8695868"></polygon>
				<polygon fill="url(#radialGradient-4)" points="109.578481 86.1958963 151.600106 116.697612 250.232478 21.2730761 240.353043 3.19454217 153.575995 95.3281369 124.615146 68.6387319"></polygon>
				<path d="M239.924611,0.252128117 L255.993807,28.5339178 L150.485992,137.774768 L105.61305,89.9102984 L123.498274,63.0824672 L153.276421,91.1426393 L239.924611,0.252128117 Z M150.525033,132.522194 L251.50718,27.9671383 L239.183391,6.27726667 L153.413206,96.2467848 L124.133934,68.6567065 L110.219004,89.5290981 L150.525033,132.522194 Z" fill="#000000" fill-rule="nonzero"></path>
		</g>
</svg>
